www/assets/icons/screen_share.svg

<svg xmlns="http://www.w3.org/2000/svg" width="24" height="24" viewBox="0 0 24 24" fill='currentColor'><path d="M20 18c1.1 0 1.99-.9 1.99-2L22 6a2 2 0 0 0-2-2H4c-1.11 0-2 .89-2 2v10a2 2 0 0 0 2 2H0v2h24v-2zm-7-3.53v-2.19c-2.78 0-4.61.85-6 2.72.56-2.67 2.11-5.33 6-5.87V7l4 3.73z"/></svg>

<svg width="24" height="24" viewBox="0 0 24 24" xmlns="http://www.w3.org/2000/svg" fill='currentColor'><path d="M20 18C21.1 18 21.99 17.1 21.99 16L22 6C22 4.89 21.1 4 20 4H4C2.89 4 2 4.89 2 6V16C2 17.1 2.89 18 4 18H0V20H24V18H20ZM13 14.47V12.28C10.22 12.28 8.39 13.13 7 15C7.56 12.33 9.11 9.67 13 9.13V7L17 10.73L13 14.47Z"/></svg>
